icon-themes/elementary_svg/cmd/lc_defineprintarea.svg

<svg height="24" width="24" xmlns="http://www.w3.org/2000/svg" xmlns:xlink="http://www.w3.org/1999/xlink"><linearGradient id="a"><stop offset="0"/><stop offset="1" stop-opacity="0"/></linearGradient><radialGradient id="b" cx="605.71" cy="486.65" gradientTransform="matrix(.01205 0 0 .00824 13.24 16.98)" gradientUnits="userSpaceOnUse" r="117.14" xlink:href="#a"/><radialGradient id="c" cx="605.71" cy="486.65" gradientTransform="matrix(-.01205 0 0 .00824 10.76 16.98)" gradientUnits="userSpaceOnUse" r="117.14" xlink:href="#a"/><linearGradient id="d" gradientTransform="matrix(.0352 0 0 .00824 -.725 16.98)" gradientUnits="userSpaceOnUse" x1="302.86" x2="302.86" y1="366.65" y2="609.51"><stop offset="0" stop-opacity="0"/><stop offset=".5"/><stop offset="1" stop-opacity="0"/></linearGradient><linearGradient id="e" gradientUnits="userSpaceOnUse" x1="16" x2="16" y1="4" y2="20"><stop offset="0" stop-color="#f4f4f4"/><stop offset="1" stop-color="#dbdbdb"/></linearGradient><linearGradient id="f" gradientUnits="userSpaceOnUse" x1="3" x2="21" y1="12" y2="12"><stop offset="0" stop-opacity=".318"/><stop offset="1" stop-opacity=".24"/></linearGradient><path d="m3.5 3.5h17v17h-17z" fill="url(#e)"/><path d="m3.5 3.5h17v17h-17z" fill="none" opacity=".73" stroke="url(#f)"/><path d="m3.5 20h17v2h-17z" fill="url(#d)" opacity=".15"/><path d="m3.5 20v2c-.62.004-1.5-.448-1.5-1s.692-1 1.5-1z" fill="url(#c)" opacity=".15"/><path d="m20.5 20v2c.62.004 1.5-.448 1.5-1s-.692-1-1.5-1z" fill="url(#b)" opacity=".15"/><path d="m5.5 4v16m14.5-1.5h-16m16-9h-16m6.5-5.5v16m5-16v16m4.5-7.5h-16m16 3h-16m16-9h-16" fill="none" opacity=".49" stroke="#2c465d" stroke-opacity=".324"/><path d="m5.5 6.5h10v12h-10z" fill="none" stroke="#e25757" stroke-dasharray="1 1" stroke-dashoffset=".5"/><path d="m10.868 22.5c.008.36.03.914.343.99 3.3.02 6.28.003 9.58.01.34.015.353-.622.342-1h-10.263z" fill="#505050" stroke="#565656" stroke-linecap="square"/><g stroke-linecap="round"><path d="m8.647 14.556.748-3.05 13.216.003.716 3.062z" fill="#4f4f4f" fill-rule="evenodd"/><path d="m9.225 14.517h13.55c.402 0 .725.348.725.78v6.203h-15v-6.203c0-.432.324-.78.726-.78z" fill="#4f4f4f"/><path d="m9.225 14.517h13.55c.402 0 .725.348.725.78v6.203h-15v-6.203c0-.432.324-.78.726-.78z" fill="none" opacity=".71" stroke="#393939" stroke-linejoin="round"/><path d="m20 16h2v2h-2z" fill="#0cceff"/><path d="m8.647 14.556.748-3.05 13.216.003.716 3.062z" fill="none" opacity=".7" stroke="#393939" stroke-linecap="butt"/></g><g fill="#e9e9e9"><path d="m21 19v3.506c0 .274-.07.494-.156.494h-9.688c-.086 0-.156-.22-.156-.494v-3.506z"/><path d="m11.483 8.498 9.027.002v4.856h-9.027z" stroke="#8c8c8c" stroke-linejoin="round" stroke-width=".995"/></g></svg>

<svg xmlns="http://www.w3.org/2000/svg" xmlns:xlink="http://www.w3.org/1999/xlink" height="24" width="24" version="1"><defs><linearGradient id="a"><stop offset="0"/><stop stop-opacity="0" offset="1"/></linearGradient><radialGradient id="f" xlink:href="#a" gradientUnits="userSpaceOnUse" cy="486.65" cx="605.71" gradientTransform="matrix(.01205 0 0 .00824 13.24 16.98)" r="117.14"/><radialGradient id="e" xlink:href="#a" gradientUnits="userSpaceOnUse" cy="486.65" cx="605.71" gradientTransform="matrix(-.01205 0 0 .00824 10.76 16.98)" r="117.14"/><linearGradient id="d" y2="609.51" gradientUnits="userSpaceOnUse" x2="302.86" gradientTransform="matrix(.0352 0 0 .00824 -.725 16.98)" y1="366.65" x1="302.86"><stop stop-opacity="0" offset="0"/><stop offset=".5"/><stop stop-opacity="0" offset="1"/></linearGradient><linearGradient id="b" y2="20" gradientUnits="userSpaceOnUse" x2="16" y1="4" x1="16"><stop stop-color="#f4f4f4" offset="0"/><stop stop-color="#dbdbdb" offset="1"/></linearGradient><linearGradient id="c" y2="12" gradientUnits="userSpaceOnUse" x2="21" y1="12" x1="3"><stop stop-opacity=".318" offset="0"/><stop stop-opacity=".24" offset="1"/></linearGradient></defs><path fill="url(#b)" d="M3.5 3.5h17v17h-17z"/><path opacity=".73" stroke="url(#c)" fill="none" d="M3.5 3.5h17v17h-17z"/><path opacity=".15" fill="url(#d)" d="M3.5 20h17v2h-17z"/><path opacity=".15" d="M3.5 20v2c-.62.004-1.5-.448-1.5-1s.692-1 1.5-1z" fill="url(#e)"/><path opacity=".15" d="M20.5 20v2c.62.004 1.5-.448 1.5-1s-.692-1-1.5-1z" fill="url(#f)"/><g opacity=".7" stroke-opacity=".324" stroke="#2c465d" fill="none"><path opacity=".7" d="M5.5 4v16M20 18.5H4M20 9.5H4M10.5 4v16M15.5 4v16M20 12.5H4M20 15.5H4M20 6.5H4"/></g><path stroke-dasharray="1, 1" stroke-dashoffset=".5" stroke="#e25757" fill="none" d="M5.5 6.5h10v12h-10z"/><g><path d="M10.868 22.5c.008.36.03.914.343.99 3.3.02 6.28.003 9.58.01.34.015.353-.622.342-1H10.87z" stroke="#565656" stroke-linecap="square" fill="#505050"/><g stroke-linecap="round"><path d="M8.647 14.556l.748-3.05 13.216.003.716 3.062z" fill-rule="evenodd" fill="#4f4f4f"/><path d="M9.225 14.517h13.55c.402 0 .725.348.725.78V21.5h-15v-6.203c0-.432.324-.78.726-.78z" fill="#4f4f4f"/><path opacity=".71" stroke-linejoin="round" d="M9.225 14.517h13.55c.402 0 .725.348.725.78V21.5h-15v-6.203c0-.432.324-.78.726-.78z" stroke="#393939" fill="none"/><path fill="#0cceff" color="#000" d="M20 16h2v2h-2z"/><path opacity=".7" d="M8.647 14.556l.748-3.05 13.216.003.716 3.062z" stroke="#393939" stroke-linecap="butt" fill="none"/></g><path d="M21 19v3.506c0 .274-.07.494-.156.494h-9.688c-.086 0-.156-.22-.156-.494V19z" fill="#e9e9e9"/><path stroke-linejoin="round" d="M11.483 8.498l9.027.002v4.856h-9.027z" stroke="#8c8c8c" stroke-width=".995" fill="#e9e9e9"/></g></svg>
